packages/ui-solid/icons/bin_28.svg

<svg width="28" height="28" viewBox="0 0 28 28" fill="none" xmlns="http://www.w3.org/2000/svg">
<path fill-rule="evenodd" clip-rule="evenodd" d="M13.8185 2.4846C13.8671 2.48465 13.9164 2.4847 13.9662 2.4847C14.0161 2.4847 14.0654 2.48465 14.114 2.4846C14.8432 2.48387 15.436 2.48327 15.9448 2.6519C16.8841 2.96316 17.6354 3.68342 17.9647 4.61746C18.0837 4.95508 18.1231 5.32953 18.1359 5.74915H22.9451C23.4915 5.74915 23.9344 6.19207 23.9344 6.73844C23.9344 7.28481 23.4915 7.72773 22.9451 7.72773H4.98735C4.44098 7.72773 3.99807 7.28481 3.99807 6.73844C3.99807 6.19207 4.44098 5.74915 4.98735 5.74915H9.79663C9.80941 5.32953 9.84881 4.95508 9.96784 4.61745C10.2971 3.68342 11.0484 2.96316 11.9877 2.6519C12.4965 2.48327 13.0893 2.48387 13.8185 2.4846ZM11.7776 5.74915H16.1549C16.146 5.47183 16.1288 5.3609 16.0986 5.27532C15.9787 4.93502 15.6976 4.65435 15.3224 4.53003C15.1592 4.47595 14.9213 4.46327 13.9662 4.46327C13.0112 4.46327 12.7733 4.47595 12.6101 4.53003C12.2349 4.65435 11.9538 4.93502 11.8338 5.27533C11.8037 5.3609 11.7865 5.47183 11.7776 5.74915ZM6.54938 9.0211C7.09161 8.95398 7.58558 9.33914 7.65269 9.88137L8.74298 18.6902C8.89026 19.8801 8.99205 20.6905 9.13938 21.3039C9.28128 21.8947 9.44256 22.1951 9.64373 22.4085C9.75466 22.5261 9.87843 22.6326 10.0132 22.7262C10.2621 22.8989 10.6001 23.0216 11.2325 23.0889C11.8842 23.1583 12.732 23.1596 13.9662 23.1596C15.2004 23.1596 16.0483 23.1583 16.7 23.0889C17.3324 23.0216 17.6704 22.8989 17.9193 22.7262C18.0541 22.6326 18.1778 22.5261 18.2888 22.4085C18.4899 22.1951 18.6512 21.8947 18.7931 21.3039C18.9404 20.6905 19.0422 19.8801 19.1895 18.6902L20.2798 9.88137C20.3469 9.33914 20.8409 8.95398 21.3831 9.0211C21.9253 9.08821 22.3105 9.58218 22.2434 10.1244L21.1461 18.9898C21.0076 20.1091 20.8935 21.0311 20.717 21.766C20.532 22.5359 20.2564 23.2059 19.7282 23.766C19.5225 23.9841 19.2942 24.1804 19.0474 24.3517C18.4174 24.7889 17.7096 24.9712 16.9094 25.0563C16.1407 25.1382 15.1872 25.1382 14.0208 25.1381H13.9117C12.7453 25.1382 11.7918 25.1382 11.023 25.0563C10.2229 24.9712 9.51512 24.7889 8.88514 24.3517C8.63829 24.1804 8.41004 23.9841 8.2043 23.766C7.67611 23.2059 7.40046 22.5359 7.21553 21.766C7.039 21.0311 6.9249 20.109 6.78639 18.9898L5.6891 10.1244C5.62199 9.58218 6.00715 9.08821 6.54938 9.0211Z" fill="#007AFF"/>
</svg>

<svg xmlns="http://www.w3.org/2000/svg" width="28" height="28" fill="none"><path fill="currentColor" fill-rule="evenodd" d="M13.819 2.485h.295c.73-.001 1.322-.002 1.83.167a3.2 3.2 0 0 1 2.02 1.965c.12.338.16.713.172 1.132h4.81a.99.99 0 1 1 0 1.979H4.986a.99.99 0 0 1 0-1.979h4.81c.012-.42.052-.794.17-1.132a3.2 3.2 0 0 1 2.02-1.965c.51-.169 1.102-.168 1.832-.167m-2.041 3.264h4.377c-.009-.277-.026-.388-.056-.474a1.22 1.22 0 0 0-.777-.745c-.163-.054-.4-.067-1.356-.067-.955 0-1.193.013-1.356.067a1.22 1.22 0 0 0-.776.745c-.03.086-.047.197-.056.474M6.549 9.021a.99.99 0 0 1 1.104.86l1.09 8.81c.147 1.19.25 2 .396 2.613.142.59.304.891.505 1.105q.165.177.37.317c.248.173.586.296 1.219.363.651.07 1.499.07 2.733.07s2.082 0 2.734-.07c.632-.067.97-.19 1.22-.363q.202-.14.369-.317c.2-.214.362-.514.504-1.105.147-.613.25-1.424.396-2.614l1.09-8.809a.99.99 0 1 1 1.964.243l-1.097 8.866c-.138 1.12-.253 2.041-.429 2.776-.185.77-.46 1.44-.989 2a4.3 4.3 0 0 1-.68.586c-.63.437-1.338.62-2.139.704-.768.082-1.722.082-2.888.082h-.11c-1.166 0-2.12 0-2.888-.082-.8-.085-1.508-.267-2.138-.704a4.3 4.3 0 0 1-.68-.586c-.529-.56-.805-1.23-.99-2-.176-.735-.29-1.657-.429-2.776L5.69 10.124a.99.99 0 0 1 .86-1.103" clip-rule="evenodd"/></svg>
